apps/common/mobile/resources/icons/common/icon-table-add-column-left.svg

<svg width="24" height="24" viewBox="0 0 24 24" xmlns="http://www.w3.org/2000/svg">
<path d="M21 3.5459C21.9665 3.5459 22.75 4.3294 22.75 5.2959V18.2959C22.7499 19.2623 21.9664 20.0459 21 20.0459H14C13.5858 20.0459 13.25 19.7101 13.25 19.2959C13.25 18.8817 13.5858 18.5459 14 18.5459H15.25V15.0459H9.5V13.8574C9.5 12.3387 8.26869 11.1066 6.75 11.1064C5.23281 11.1073 4.00098 12.3383 4.00098 13.8574L4 13.8564C3.9999 14.3098 4.00008 14.7022 4 15.0459C3.58579 15.0459 3.25 14.7101 3.25 14.2959V5.2959C3.25 4.3294 4.0335 3.5459 5 3.5459H21ZM16.75 18.5459H21C21.138 18.5459 21.2499 18.4339 21.25 18.2959V15.0459H16.75V18.5459ZM10.75 13.5459H15.25V10.0459H10.75V13.5459ZM16.75 13.5459H21.25V10.0459H16.75V13.5459ZM10.75 8.5459H15.25V5.0459H10.75V8.5459ZM16.75 8.5459H21.25V5.2959C21.25 5.15783 21.1381 5.0459 21 5.0459H16.75V8.5459Z" fill="#444444"/>
<path d="M6.75 13.1064C7.16418 13.1065 7.5 13.4423 7.5 13.8564L7.49902 17.1064H10.75C11.1642 17.1064 11.5 17.4422 11.5 17.8564C11.5 18.2706 11.1642 18.6064 10.75 18.6064H7.49902L7.5 21.8564C7.5 22.2706 7.16418 22.6064 6.75 22.6064C6.3359 22.6063 6 22.2706 6 21.8564L5.99902 18.6064H2.75C2.33589 18.6064 2.00004 18.2706 2 17.8564C2 17.4423 2.33586 17.1065 2.75 17.1064H5.99902L6 13.8564C6 13.4423 6.3359 13.1066 6.75 13.1064Z" fill="#446ECA"/>
</svg>

<svg xmlns="http://www.w3.org/2000/svg" width="24" height="24" fill="none" viewBox="0 0 24 24">
  <g class="icon-table-add-column-left">
    <path fill="#446ECA" d="M6 13.856a.75.75 0 0 1 1.5 0v3.25h3.25a.75.75 0 0 1 0 1.5H7.5v3.25a.75.75 0 1 1-1.5 0v-3.25H2.75a.75.75 0 0 1 0-1.5H6v-3.25Z" class="icon-fill-blue-primary"/>
    <path fill="#444" fill-rule="evenodd" d="M21 3.546c.966 0 1.75.783 1.75 1.75v13a1.75 1.75 0 0 1-1.75 1.75h-7a.75.75 0 0 1 0-1.5h1.25v-3.5H9.5v-1.189a2.751 2.751 0 0 0-2.75-2.75 2.751 2.751 0 0 0-2.749 2.75H4v1.189a.75.75 0 0 1-.75-.75v-9c0-.967.784-1.75 1.75-1.75h16Zm-4.25 15H21a.25.25 0 0 0 .25-.25v-3.25h-4.5v3.5Zm-6-5h4.5v-3.5h-4.5v3.5Zm6 0h4.5v-3.5h-4.5v3.5Zm-6-5h4.5v-3.5h-4.5v3.5Zm6 0h4.5v-3.25a.25.25 0 0 0-.25-.25h-4.25v3.5Z" class="icon-fill-gray-primary" clip-rule="evenodd"/>
  </g>
</svg>
